outputs/icons/hardware/tablet_mac_sharp.svg

<svg xmlns="http://www.w3.org/2000/svg" width="1200" height="1200" fill="none"><g clip-path="url(#a)"><path fill="#000" d="M1050 0H100v1200h950zM575 1150c-41.5 0-75-33.5-75-75s33.5-75 75-75 75 33.5 75 75-33.5 75-75 75m375-200H200V150h750z"/></g><defs><clipPath id="a"><path fill="#fff" d="M0 0h1200v1200H0z"/></clipPath></defs></svg>

<svg width="1200" height="1200" viewBox="0 0 1200 1200" fill="none" xmlns="http://www.w3.org/2000/svg"><g clip-path="url(#clip0_133_32)"><path d="M1050 0H100V1200H1050V0ZM575 1150C533.5 1150 500 1116.5 500 1075C500 1033.5 533.5 1000 575 1000C616.5 1000 650 1033.5 650 1075C650 1116.5 616.5 1150 575 1150ZM950 950H200V150H950V950Z" fill="#1D1E23"/></g><defs><clipPath id="clip0_133_32"><path width="24" fill="white" d="M0 0H1200V1200H0V0z"/></clipPath></defs></svg>
